src/images/icon/icon_color_devspace.svg

<svg height="48" viewBox="0 0 48 48" width="48" xmlns="http://www.w3.org/2000/svg"><g fill="none" fill-rule="evenodd"><circle cx="24" cy="24" fill="#f5e9ff" r="24"/><g transform="translate(12 12)"><path d="m11.2509091 2.4c2.6581818 0 4.9490909 1.539 6.0509091 3.771 2.7274129.16263126 5.0427253 1.85286693 6.0938288 4.2294782-.4404238-.49490028-1.0816217-.80671149-1.795647-.80671149h-9.6c-1.3254834 0-2.4 1.07451659-2.4 2.39999999v6.0062333c0 1.3254834 1.0745166 2.4 2.4 2.4l5.296-.001-.0450909.001h-11.2509091c-3.34654546-.182625-6-2.8065-6-6 0-2.7075 1.90690909-4.99575 4.52545454-5.74199999.25272728-3.49687502 3.16399999-6.25800001 6.72545456-6.25800001z" fill="#c274fb" fill-rule="nonzero"/><g stroke="#c274fb" stroke-width="2.4"><path d="m15.8094463 19.0082357-3.3245826-3.6 3.3245826-3.6"/><path d="m19.0306707 19.0082357 3.3245826-3.6-3.3245826-3.6"/></g></g></g></svg>

<?xml version="1.0" encoding="UTF-8"?>
<svg width="48px" height="48px" viewBox="0 0 48 48" version="1.1" xmlns="http://www.w3.org/2000/svg" xmlns:xlink="http://www.w3.org/1999/xlink">
    <title>icon_color_devspace</title>
    <g id="Dashboard" stroke="none" stroke-width="1" fill="none" fill-rule="evenodd">
        <g id="01-概览" transform="translate(-1042.000000, -370.000000)">
            <g id="数据" transform="translate(244.000000, 264.000000)">
                <g id="编组-3备份-2" transform="translate(592.000000, 72.000000)">
                    <g id="编组-5" transform="translate(206.000000, 34.000000)">
                        <circle id="icon_color_devspace" fill="#F5E9FF" cx="24" cy="24" r="24"></circle>
                        <g id="编组-15" transform="translate(12.000000, 12.000000)">
                            <path d="M11.2509091,2.4 C13.9090909,2.4 16.2,3.939 17.3018182,6.171 C20.0292311,6.33363126 22.3445435,8.02386693 23.395647,10.4004782 C22.9552232,9.90557792 22.3140253,9.59376671 21.6,9.59376671 L21.6,9.59376671 L12,9.59376671 C10.6745166,9.59376671 9.6,10.6682833 9.6,11.9937667 L9.6,11.9937667 L9.6,18 C9.6,19.3254834 10.6745166,20.4 12,20.4 L12,20.4 L17.296,20.399 L17.2509091,20.4 L6,20.4 C2.65345454,20.217375 0,17.5935 0,14.4 C0,11.6925 1.90690909,9.40425 4.52545454,8.65800001 C4.77818182,5.16112499 7.68945453,2.4 11.2509091,2.4 Z" id="形状结合" fill="#C274FB" fill-rule="nonzero"></path>
                            <polyline id="路径" stroke="#C274FB" stroke-width="2.4" points="15.8094463 19.0082357 12.4848637 15.4082357 15.8094463 11.8082357"></polyline>
                            <polyline id="路径" stroke="#C274FB" stroke-width="2.4" points="19.0306707 19.0082357 22.3552533 15.4082357 19.0306707 11.8082357"></polyline>
                        </g>
                    </g>
                </g>
            </g>
        </g>
    </g>
</svg>
